;FLAVOR:Marlin
;TIME:13868
;Filament used: 6.94678m
;Layer height: 0.16
;MINX:79.086
;MINY:54.288
;MINZ:0.24
;MAXX:154.512
;MAXY:180.713
;MAXZ:18.83
;TARGET_MACHINE.NAME:Creality Ender-3
;Generated with Cura_SteamEngine 5.8.1
M140 S50
M105
M190 S50
M104 S200
M105
M109 S200
M82 ;absolute extrusion mode
; Ender 3 Custom Start G-code
G92 E0 ; Reset Extruder
G28 ; Home all axes
G1 Z2.0 F3000 ; Move Z Axis up little to prevent scratching of Heat Bed
G1 X0.1 Y20 Z0.3 F5000.0 ; Move to start position
G1 X0.1 Y200.0 Z0.3 F1500.0 E15 ; Draw the first line
G1 X0.4 Y200.0 Z0.3 F5000.0 ; Move to side a little
G1 X0.4 Y20 Z0.3 F1500.0 E30 ; Draw the second line
G92 E0 ; Reset Extruder
G1 Z2.0 F3000 ; Move Z Axis up little to prevent scratching of Heat Bed
G1 X5 Y20 Z0.3 F5000.0 ; Move over to prevent blob squish
G92 E0
G92 E0
G1 F2700 E-5
;LAYER_COUNT:119
;LAYER:-5
M107
G0 F9000 X112.277 Y57.939 Z0.24
;TYPE:SUPPORT-INTERFACE
G1 F2700 E0
G1 F1125 X112.423 Y57.683 E0.02352
G1 X112.673 Y57.291 E0.06064
G1 X113.051 Y56.828 E0.10835
G1 X113.498 Y56.396 E0.15797
G1 X113.969 Y56.056 E0.20434
G1 X114.618 Y55.707 E0.26316
G1 X114.638 Y55.721 E0.26511
G1 X115.035 Y55.566 E0.29913
G1 X115.582 Y55.428 E0.34416
G1 X116.489 Y55.352 E0.41682
G1 X146.2 Y55.352 E2.78848
G1 X146.769 Y55.387 E2.83398
G1 X147.32 Y55.482 E2.87862
G1 X147.718 Y55.608 E2.91194
G1 X147.734 Y55.596 E2.91354
G1 X147.994 Y55.703 E2.93598
G1 X148.423 Y55.904 E2.9738
G1 X148.93 Y56.222 E3.02157
G1 X149.419 Y56.62 E3.0719
G1 X149.829 Y57.073 E3.12067
G1 X150.14 Y57.498 E3.16271
G1 X150.416 Y58.012 E3.20928
G1 X150.61 Y58.512 E3.25209
G1 X150.772 Y59.129 E3.30301
G1 X150.848 Y60.006 E3.37328
G1 X150.85 Y76.598 E4.69773
G1 X150.894 Y76.986 E4.7289
G1 X151.026 Y77.437 E4.76641
G1 X151.21 Y77.912 E4.80707
G1 X151.372 Y78.529 E4.85799
G1 X151.448 Y79.406 E4.92826
G1 X151.448 Y82.615 E5.18441
G1 X151.414 Y83.168 E5.22864
G1 X151.313 Y83.736 E5.27469
G1 X151.2 Y84.123 E5.30687
G1 X151.209 Y84.135 E5.30807
G1 X151.097 Y84.407 E5.33155
G1 X150.892 Y84.843 E5.37001
G1 X150.578 Y85.342 E5.41707
G1 X150.179 Y85.834 E5.46764
G1 X149.761 Y86.222 E5.51316
G1 X149.298 Y86.556 E5.55873
G1 X148.833 Y86.809 E5.60099
G1 X148.236 Y87.05 E5.65238
G1 X147.678 Y87.188 E5.69827
G1 X146.779 Y87.264 E5.77029
G1 X132.181 Y87.268 E6.93556
G1 X131.743 Y87.317 E6.97074
G1 X131.252 Y87.478 E7.01199
G1 X130.841 Y87.712 E7.04974
G1 X130.545 Y87.914 E7.07835
G1 X130.152 Y88.237 E7.11895
G1 X129.852 Y88.603 E7.15673
G1 X129.642 Y88.985 E7.19153
G1 X129.504 Y89.428 E7.22856
G1 X129.45 Y89.882 E7.26506
G1 X129.452 Y161.468 E12.97936
G1 X129.508 Y161.943 E13.01754
G1 X129.617 Y162.299 E13.04726
G1 X129.929 Y162.856 E13.09823
G1 X130.045 Y163.019 E13.1142
G1 X130.275 Y163.379 E13.1483
G1 X130.594 Y163.761 E13.18802
G1 X130.978 Y164.069 E13.22732
G1 X131.417 Y164.369 E13.26976
G1 X131.806 Y164.607 E13.30616
G1 X132.199 Y164.756 E13.33971
G1 X132.807 Y164.845 E13.38876
G1 X148.8 Y164.848 E14.66539
G1 X149.368 Y164.882 E14.71082
G1 X149.921 Y164.982 E14.75568
G1 X150.315 Y165.104 E14.7886
G1 X150.33 Y165.093 E14.79008
G1 X150.596 Y165.2 E14.81297
G1 X151.023 Y165.4 E14.85061
G1 X151.53 Y165.718 E14.89838
G1 X152.019 Y166.116 E14.94871
G1 X152.429 Y166.569 E14.99748
G1 X152.74 Y166.994 E15.03952
G1 X153.015 Y167.508 E15.08605
G1 X153.21 Y168.012 E15.12919
G1 X153.372 Y168.625 E15.1798
G1 X153.448 Y169.502 E15.25007
G1 X153.448 Y173.503 E15.56945
G1 X153.414 Y174.056 E15.61368
G1 X153.314 Y174.62 E15.6594
G1 X153.199 Y175.009 E15.69178
G1 X153.208 Y175.021 E15.69298
G1 X153.097 Y175.295 E15.71657
G1 X152.873 Y175.77 E15.7585
G1 X152.555 Y176.268 E15.80566
G1 X152.227 Y176.666 E15.84683
G1 X151.794 Y177.077 E15.89449
G1 X151.297 Y177.445 E15.94385
G1 X150.834 Y177.693 E15.98578
G1 X150.236 Y177.934 E16.03724
G1 X149.678 Y178.072 E16.08313
G1 X148.778 Y178.152 E16.15525
G1 X125.385 Y178.152 E18.02258
G1 X124.941 Y178.202 E18.05825
G1 X124.486 Y178.349 E18.09642
G1 X124.059 Y178.59 E18.13556
G1 X123.572 Y178.939 E18.18338
G1 X122.917 Y179.29 E18.2427
G1 X122.9 Y179.278 E18.24436
G1 X122.507 Y179.429 E18.27797
G1 X121.949 Y179.568 E18.32387
G1 X121.05 Y179.648 E18.39592
G1 X84.797 Y179.647 E21.28979
G1 X84.224 Y179.61 E21.33562
G1 X83.67 Y179.514 E21.3805
G1 X83.274 Y179.392 E21.41358
G1 X83.26 Y179.403 E21.415
G1 X82.999 Y179.298 E21.43746
G1 X82.481 Y179.042 E21.48358
G1 X82.026 Y178.752 E21.52665
G1 X81.611 Y178.404 E21.56989
G1 X81.193 Y177.963 E21.61839
G1 X80.856 Y177.499 E21.66416
G1 X80.565 Y176.952 E21.71362
G1 X80.378 Y176.473 E21.75467
G1 X80.228 Y175.883 E21.80326
G1 X80.152 Y175.069 E21.86852
G1 X80.148 Y142.001 E24.50815
G1 X80.182 Y141.447 E24.55246
G1 X80.282 Y140.876 E24.59873
G1 X80.398 Y140.486 E24.63121
G1 X80.389 Y140.475 E24.63235
G1 X80.495 Y140.209 E24.6552
G1 X80.704 Y139.772 E24.69387
G1 X81.014 Y139.27 E24.74097
G1 X81.417 Y138.783 E24.79143
G1 X81.831 Y138.394 E24.83677
G1 X82.293 Y138.06 E24.88228
G1 X82.763 Y137.807 E24.92489
G1 X83.36 Y137.566 E24.97628
G1 X83.918 Y137.428 E25.02216
G1 X84.817 Y137.352 E25.09418
G1 X101.608 Y137.352 E26.43451
G1 X102.181 Y137.387 E26.48034
G1 X102.732 Y137.482 E26.52497
G1 X103.13 Y137.608 E26.55829
G1 X103.146 Y137.596 E26.55989
G1 X103.406 Y137.703 E26.58233
G1 X103.835 Y137.904 E26.62015
G1 X104.338 Y138.222 E26.66765
G1 X104.828 Y138.62 E26.71804
G1 X105.241 Y139.073 E26.76698
G1 X105.548 Y139.497 E26.80876
G1 X105.824 Y140.013 E26.85547
G1 X106.022 Y140.513 E26.8984
G1 X106.18 Y141.124 E26.94878
G1 X106.256 Y141.998 E27.01881
G1 X106.288 Y160.468 E28.49317
G1 X106.347 Y160.95 E28.53193
G1 X106.461 Y161.324 E28.56314
G1 X106.683 Y161.747 E28.60127
G1 X107.001 Y162.136 E28.64138
G1 X107.387 Y162.448 E28.681
G1 X107.847 Y162.675 E28.72194
G1 X108.298 Y162.794 E28.75918
G1 X108.675 Y162.827 E28.78939
G1 X109.403 Y162.824 E28.8475
G1 X109.902 Y162.774 E28.88753
G1 X110.328 Y162.641 E28.92315
G1 X110.747 Y162.417 E28.96108
G1 X111.124 Y162.107 E29.00004
G1 X111.428 Y161.729 E29.03876
G1 X111.652 Y161.28 E29.07882
G1 X111.781 Y160.805 E29.11811
G1 X111.807 Y160.449 E29.1466
G1 X111.82 Y59.999 E37.16495
G1 X111.854 Y59.375 E37.21484
G1 X111.976 Y58.772 E37.26395
G1 X112.159 Y58.222 E37.31022
G1 X112.29 Y57.956 E37.33389
G1 X112.277 Y57.939 E37.33559
G1 F2700 E32.33559
G0 F9000 X112.236 Y59.733
G1 F2700 E37.33559
G1 F1125 X116.19 Y55.778 E37.78201
G1 F2700 E32.78201
G0 F9000 X118.479 Y55.752
G1 F2700 E37.78201
G1 F1125 X112.22 Y62.011 E38.48858
G1 F2700 E33.48858
G0 F9000 X112.22 Y64.274
G1 F2700 E38.48858
G1 F1125 X120.742 Y55.752 E39.45062
G1 F2700 E34.45062
G0 F9000 X123.005 Y55.752
G1 F2700 E39.45062
G1 F1125 X112.219 Y66.537 E40.66818
G1 F2700 E35.66818
G0 F9000 X112.219 Y68.8
G1 F2700 E40.66818
G1 F1125 X125.268 Y55.752 E42.14121
G1 F2700 E37.14121
G0 F9000 X127.53 Y55.752
G1 F2700 E42.14121
G1 F1125 X112.219 Y71.064 E43.8697
G1 F2700 E38.8697
G0 F9000 X112.219 Y73.326
G1 F2700 E43.8697
G1 F1125 X129.793 Y55.752 E45.85361
G1 F2700 E40.85361
G0 F9000 X132.056 Y55.752
G1 F2700 E45.85361
G1 F1125 X112.219 Y75.589 E48.09298
G1 F2700 E43.09298
G0 F9000 X112.218 Y77.852
G1 F2700 E48.09298
G1 F1125 X134.318 Y55.752 E50.58782
G1 F2700 E45.58782
G0 F9000 X136.581 Y55.752
G1 F2700 E50.58782
G1 F1125 X112.218 Y80.115 E53.33812
G1 F2700 E48.33812
G0 F9000 X112.217 Y82.379
G1 F2700 E53.33812
G1 F1125 X138.844 Y55.752 E56.34401
G1 F2700 E51.34401
G0 F9000 X141.107 Y55.752
G1 F2700 E56.34401
G1 F1125 X112.217 Y84.641 E59.60531
G1 F2700 E54.60531
G0 F9000 X112.216 Y86.905
G1 F2700 E59.60531
G1 F1125 X143.369 Y55.752 E63.12212
G1 F2700 E58.12212
G0 F9000 X145.632 Y55.752
G1 F2700 E63.12212
G1 F1125 X112.216 Y89.168 E66.89441
G1 F2700 E61.89441
G0 F9000 X112.216 Y91.43
G1 F2700 E66.89441
G1 F1125 X147.66 Y55.987 E70.89558
G1 F2700 E65.89558
G0 F9000 X149.064 Y56.846
G1 F2700 E70.89558
G1 F1125 X112.216 Y93.694 E75.0553
G1 F2700 E70.0553
G0 F9000 X112.216 Y95.957
G1 F2700 E75.0553
G1 F1125 X150.03 Y58.142 E79.32413
G1 F2700 E74.32413
G0 F9000 X150.444 Y59.991
G1 F2700 E79.32413
G1 F1125 X112.215 Y98.22 E83.63975
G1 F2700 E78.63975
G0 F9000 X112.215 Y100.483
G1 F2700 E83.63975
G1 F1125 X150.448 Y62.25 E87.95582
G1 F2700 E82.95582
G0 F9000 X150.448 Y64.513
G1 F2700 E87.95582
G1 F1125 X112.214 Y102.746 E92.27195
G1 F2700 E87.27195
G0 F9000 X112.214 Y105.009
G1 F2700 E92.27195
G1 F1125 X150.448 Y66.776 E96.58808
G1 F2700 E91.58808
G0 F9000 X150.448 Y69.038
G1 F2700 E96.58808
G1 F1125 X132.614 Y86.872 E98.60133
G1 F2700 E93.60133
G0 F9000 X134.878 Y86.871
G1 F2700 E98.60133
G1 F1125 X150.448 Y71.301 E100.35901
G1 F2700 E95.35901
G0 F9000 X150.448 Y73.564
G1 F2700 E100.35901
G1 F1125 X137.142 Y86.869 E101.86105
G1 F2700 E96.86105
G0 F9000 X139.405 Y86.869
G1 F2700 E101.86105
G1 F1125 X150.448 Y75.827 E103.10762
G1 F2700 E98.10762
G0 F9000 X150.737 Y77.799
G1 F2700 E103.10762
G1 F1125 X141.67 Y86.867 E104.13124
G1 F2700 E99.13124
G0 F9000 X143.934 Y86.866
G1 F2700 E104.13124
G1 F1125 X151.048 Y79.752 E104.93433
G1 F2700 E99.93433
G0 F9000 X151.048 Y82.014
G1 F2700 E104.93433
G1 F1125 X146.197 Y86.865 E105.48195
G1 F2700 E100.48195
G0 F9000 X149.167 Y86.158
G1 F2700 E105.48195
G1 F1125 X150.312 Y85.013 E105.61121
G1 F2700 E100.61121
G0 F9000 X151.357 Y86.089
G0 X150.482 Y87.006
G0 X149.758 Y87.52
G0 X148.599 Y88.049
G0 X147.879 Y88.215
G0 X130.515 Y90.433
G0 X129.053 Y90.433
G1 F2700 E105.61121
G1 F1125 X112.214 Y107.272 E107.51214
G1 F2700 E102.51214
G0 F9000 X112.214 Y109.535
G1 F2700 E107.51214
G1 F1125 X129.053 Y92.696 E109.41307
G1 F2700 E104.41307
G0 F9000 X129.053 Y94.959
G1 F2700 E109.41307
G1 F1125 X112.214 Y111.798 E111.314
G1 F2700 E106.314
G0 F9000 X112.213 Y114.061
G1 F2700 E111.314
G1 F1125 X129.053 Y97.222 E113.21499
G1 F2700 E108.21499
G0 F9000 X129.053 Y99.484
G1 F2700 E113.21499
G1 F1125 X112.213 Y116.324 E115.11604
G1 F2700 E110.11604
G0 F9000 X112.212 Y118.587
G1 F2700 E115.11604
G1 F1125 X129.053 Y101.747 E117.01714
G1 F2700 E112.01714
G0 F9000 X129.053 Y104.01
G1 F2700 E117.01714
G1 F1125 X112.212 Y120.85 E118.91824
G1 F2700 E113.91824
G0 F9000 X112.212 Y123.113
G1 F2700 E118.91824
G1 F1125 X129.053 Y106.272 E120.8194
G1 F2700 E115.8194
G0 F9000 X129.053 Y108.535
G1 F2700 E120.8194
G1 F1125 X112.211 Y125.376 E122.72061
G1 F2700 E117.72061
G0 F9000 X112.211 Y127.639
G1 F2700 E122.72061
G1 F1125 X129.053 Y110.798 E124.62182
G1 F2700 E119.62182
G0 F9000 X129.053 Y113.061
G1 F2700 E124.62182
G1 F1125 X112.211 Y129.903 E126.5231
G1 F2700 E121.5231
G0 F9000 X112.211 Y132.165
G1 F2700 E126.5231
G1 F1125 X129.053 Y115.323 E128.42437
G1 F2700 E123.42437
G0 F9000 X129.053 Y117.586
G1 F2700 E128.42437
G1 F1125 X112.21 Y134.429 E130.32575
G1 F2700 E125.32575
G0 F9000 X112.21 Y136.692
G1 F2700 E130.32575
G1 F1125 X129.053 Y119.849 E132.22713
G1 F2700 E127.22713
G0 F9000 X129.053 Y122.112
G1 F2700 E132.22713
G1 F1125 X112.21 Y138.954 E134.12846
G1 F2700 E129.12846
G0 F9000 X112.209 Y141.218
G1 F2700 E134.12846
G1 F1125 X129.053 Y124.374 E136.02996
G1 F2700 E131.02996
G0 F9000 X129.052 Y126.638
G1 F2700 E136.02996
G1 F1125 X112.209 Y143.48 E137.93128
G1 F2700 E132.93128
G0 F9000 X112.209 Y145.744
G1 F2700 E137.93128
G1 F1125 X129.052 Y128.901 E139.83267
G1 F2700 E134.83267
G0 F9000 X129.052 Y131.163
G1 F2700 E139.83267
G1 F1125 X112.209 Y148.007 E141.73411
G1 F2700 E136.73411
G0 F9000 X112.208 Y150.27
G1 F2700 E141.73411
G1 F1125 X129.052 Y133.426 E143.6356
G1 F2700 E138.6356
G0 F9000 X129.052 Y135.689
G1 F2700 E143.6356
G1 F1125 X112.208 Y152.533 E145.5371
G1 F2700 E140.5371
G0 F9000 X112.208 Y154.796
G1 F2700 E145.5371
G1 F1125 X129.052 Y137.952 E147.4386
G1 F2700 E142.4386
G0 F9000 X129.052 Y140.214
G1 F2700 E147.4386
G1 F1125 X112.207 Y157.059 E149.3402
G1 F2700 E144.3402
G0 F9000 X112.207 Y159.322
G1 F2700 E149.3402
G1 F1125 X129.052 Y142.477 E151.24181
G1 F2700 E146.24181
G0 F9000 X129.052 Y144.74
G1 F2700 E151.24181
G1 F1125 X111.452 Y162.34 E153.22865
G1 X111.34 Y162.451
G1 X94.544 Y179.247 E155.12473
G1 F2700 E150.12473
G0 F9000 X92.282 Y179.247
G1 F2700 E155.12473
G1 F1125 X108.329 Y163.2 E156.93626
G1 F2700 E151.93626
G0 F9000 X106.789 Y162.478
G1 F2700 E156.93626
G1 F1125 X90.019 Y179.247 E158.82934
G1 F2700 E153.82934
G0 F9000 X87.756 Y179.247
G1 F2700 E158.82934
G1 F1125 X105.958 Y161.046 E160.88408
G1 F2700 E155.88408
G0 F9000 X105.886 Y158.855
G1 F2700 E160.88408
G1 F1125 X85.493 Y179.247 E163.18617
G1 F2700 E158.18617
G0 F9000 X83.45 Y179.028
G1 F2700 E163.18617
G1 F1125 X105.882 Y156.596 E165.71848
G1 F2700 E160.71848
G0 F9000 X105.878 Y154.337
G1 F2700 E165.71848
G1 F1125 X82.004 Y178.211 E168.41359
G1 F2700 E163.41359
G0 F9000 X81.013 Y176.94
G1 F2700 E168.41359
G1 F1125 X105.874 Y152.079 E171.22011
G1 F2700 E166.22011
G0 F9000 X105.869 Y149.82
G1 F2700 E171.22011
G1 F1125 X80.56 Y175.13 E174.07727
G1 F2700 E169.07727
G0 F9000 X80.552 Y172.875
G1 F2700 E174.07727
G1 F1125 X105.866 Y147.561 E176.93493
G1 F2700 E171.93493
G0 F9000 X105.862 Y145.303
G1 F2700 E176.93493
G1 F1125 X80.552 Y170.612 E179.79208
G1 F2700 E174.79208
G0 F9000 X80.551 Y168.35
G1 F2700 E179.79208
G1 F1125 X105.857 Y143.044 E182.64884
G1 F2700 E177.64884
G0 F9000 X105.715 Y140.924
G1 F2700 E182.64884
G1 F1125 X80.551 Y166.087 E185.48952
G1 F2700 E180.48952
G0 F9000 X80.551 Y163.825
G1 F2700 E185.48952
G1 F1125 X104.98 Y139.396 E188.24727
G1 F2700 E183.24727
G0 F9000 X103.775 Y138.338
G1 F2700 E188.24727
G1 F1125 X80.551 Y161.563 E190.86906
G1 F2700 E185.86906
G0 F9000 X80.551 Y159.3
G1 F2700 E190.86906
G1 F1125 X102.07 Y137.78 E193.29836
G1 F2700 E188.29836
G0 F9000 X99.836 Y137.752
G1 F2700 E193.29836
G1 F1125 X80.55 Y157.038 E195.47553
G1 F2700 E190.47553
G0 F9000 X80.55 Y154.775
G1 F2700 E195.47553
G1 F1125 X97.573 Y137.752 E197.39724
G1 F2700 E192.39724
G0 F9000 X95.31 Y137.752
G1 F2700 E197.39724
G1 F1125 X80.549 Y152.513 E199.06359
G1 F2700 E194.06359
G0 F9000 X80.549 Y150.25
G1 F2700 E199.06359
G1 F1125 X93.047 Y137.752 E200.47447
G1 F2700 E195.47447
G0 F9000 X90.785 Y137.752
G1 F2700 E200.47447
G1 F1125 X80.549 Y147.988 E201.63
G1 F2700 E196.63
G0 F9000 X80.549 Y145.726
G1 F2700 E201.63
G1 F1125 X88.522 Y137.752 E202.53011
G1 F2700 E197.53011
G0 F9000 X86.259 Y137.752
G1 F2700 E202.53011
G1 F1125 X80.549 Y143.463 E203.17477
G1 F2700 E198.17477
G0 F9000 X80.649 Y141.1
G1 F2700 E203.17477
G1 F1125 X83.907 Y137.842 E203.54256
G1 F2700 E198.54256
G0 F9000 X83.553 Y136.423
G0 X82.454 Y136.779
G0 X81.659 Y137.212
G0 X80.689 Y138.01
G0 X80.121 Y138.697
G0 X79.511 Y139.809
G0 X79.242 Y140.649
G0 X79.086 Y141.973
G0 X79.104 Y175.14
G0 X79.206 Y176.182
G0 X79.578 Y177.345
G0 X80.01 Y178.139
G0 X80.808 Y179.109
G0 X81.495 Y179.677
G0 X82.607 Y180.287
G0 X83.447 Y180.556
G0 X84.52 Y180.682
G0 X96.807 Y180.713
G0 X96.807 Y179.247
G1 F2700 E203.54256
G1 F1125 X129.052 Y147.003 E207.18259
G1 F2700 E202.18259
G0 F9000 X129.052 Y149.265
G1 F2700 E207.18259
G1 F1125 X99.07 Y179.247 E210.56722
G1 F2700 E205.56722
G0 F9000 X101.333 Y179.247
G1 F2700 E210.56722
G1 F1125 X129.052 Y151.528 E213.69638
G1 F2700 E208.69638
G0 F9000 X129.052 Y153.791
G1 F2700 E213.69638
G1 F1125 X103.595 Y179.248 E216.57019
G1 F2700 E211.57019
G0 F9000 X105.857 Y179.248
G1 F2700 E216.57019
G1 F1125 X129.052 Y156.054 E219.18858
G1 F2700 E214.18858
G0 F9000 X129.052 Y158.316
G1 F2700 E219.18858
G1 F1125 X108.12 Y179.248 E221.55157
G1 F2700 E216.55157
G0 F9000 X110.383 Y179.248
G1 F2700 E221.55157
G1 F1125 X129.052 Y160.579 E223.65909
G1 F2700 E218.65909
G0 F9000 X129.311 Y162.582
G1 F2700 E223.65909
G1 F1125 X112.646 Y179.248 E225.54043
G1 F2700 E220.54043
G0 F9000 X114.908 Y179.248
G1 F2700 E225.54043
G1 F1125 X130.221 Y163.935 E227.2691
G1 F2700 E222.2691
G0 F9000 X131.52 Y164.899
G1 F2700 E227.2691
G1 F1125 X117.171 Y179.248 E228.88894
G1 F2700 E223.88894
G0 F9000 X119.434 Y179.248
G1 F2700 E228.88894
G1 F1125 X133.434 Y165.248 E230.46938
G1 F2700 E225.46938
G0 F9000 X135.697 Y165.248
G1 F2700 E230.46938
G1 F1125 X121.762 Y179.183 E232.04248
G1 F2700 E227.04248
G0 F9000 X125.454 Y177.753
G1 F2700 E232.04248
G1 F1125 X137.959 Y165.248 E233.45415
G1 F2700 E228.45415
G0 F9000 X140.222 Y165.248
